X: 37
T:Connaughtsman's Rambles, The
M:6/8
L:1/8
R:Double Jig
N:
K:D
A[|:FAA dAA|BAA dAG|FAA dfe|dBB B2A|!
FAA dAA|BAB def|gfe dfe|1dBB B2A:|2dBB B2e|!
|:fbb faa|fef ede|fbb faa|fed e2g|!
fbb faa|fef def|gfe dfe|1dBB B2e:|2dBB B2A|]!
